X:124
T:Amon Polka. Le4.124
T:Annan Polka,aka. Le4.124
M:2/4
L:1/8
Q:1/4=100
B:L.Leadley MS#4 c1850
Z:Village Music Project, 2016 Ruairidh Greig
K:D
Ad Fd|cE/F/ G/F/E|Ae Ge|dF/G/ A/G/F|
Ad Fd|cE/F/ G/F/E|Ee Ge|1dD/E/ F/E/D:|2ddd||
f/g/a/b/ b/f/g/e/|fd d/c/d|eB cA|dd d/c/d|
f/g/a/b/ b/f/g/e/|fd d/c/d|eB cA|ddd||
c/d/c ce|ed dE|B/c/B Bd|dc cD|
c/d/c ce|ed dE|G/A/G Ge|AAA|]

